icons/Gruvbox-Material-Dark/24x24/apps/preferences-desktop.svg

<svg xmlns="http://www.w3.org/2000/svg" width="24" height="24" version="1">
 <rect style="opacity:0.2" width="20" height="20" x="2" y="2.5" rx="6" ry="6"/>
 <rect style="fill:#1e88e5" width="20" height="20" x="2" y="2" rx="6" ry="6"/>
 <path style="opacity:0.1;fill:#ffffff" d="M 8,2 C 4.676,2 2,4.676 2,8 v 0.5 c 0,-3.324 2.676,-6 6,-6 h 8 c 3.324,0 6,2.676 6,6 V 8 C 22,4.676 19.324,2 16,2 Z"/>
 <path style="fill:#253951" d="m 6,8 v 8.988281 c -0.019125,1.349172 2.019125,1.349172 2,0 V 8 Z m 10,4 v 4.988281 c -0.01913,1.349172 2.019125,1.349172 2,0 V 12 Z m -5,2 v 2.988281 c -0.01913,1.349172 2.019125,1.349172 2,0 V 14 Z"/>
 <path style="opacity:0.2" d="M 11.985352,6 C 11.43329,6.0080685 10.992222,6.460939 11,7.011719 V 14 h 2 V 7.011719 C 13.00794,6.4494915 12.548887,5.9917645 11.985352,6 Z m 4.999999,0 C 16.433289,6.0080685 15.992222,6.460939 16,7.011719 V 12 h 2 V 7.011719 C 18.007939,6.4494915 17.548887,5.9917645 16.985351,6 Z"/>
 <path style="opacity:0.2" d="m 7,6.5 c -1.1045695,0 -2,0.8954305 -2,2 0,1.1045695 0.8954305,2 2,2 1.1045695,0 2,-0.8954305 2,-2 0,-1.1045695 -0.8954305,-2 -2,-2 z m 10,4 c -1.104569,0 -2,0.895431 -2,2 0,1.10457 0.895431,2 2,2 1.104569,0 2,-0.89543 2,-2 0,-1.104569 -0.895431,-2 -2,-2 z m -5,2 c -1.104569,0 -2,0.895431 -2,2 0,1.10457 0.895431,2 2,2 1.10457,0 2,-0.89543 2,-2 0,-1.104569 -0.89543,-2 -2,-2 z"/>
 <path style="fill:#ffffff" d="M 7 6 C 5.8954305 6 5 6.8954305 5 8 C 5 9.1045695 5.8954305 10 7 10 C 8.1045695 10 9 9.1045695 9 8 C 9 6.8954305 8.1045695 6 7 6 z M 17 10 C 15.895431 10 15 10.895431 15 12 C 15 13.10457 15.895431 14 17 14 C 18.104569 14 19 13.10457 19 12 C 19 10.895431 18.104569 10 17 10 z M 12 12 C 10.895431 12 10 12.895431 10 14 C 10 15.10457 10.895431 16 12 16 C 13.10457 16 14 15.10457 14 14 C 14 12.895431 13.10457 12 12 12 z"/>
 <path style="opacity:0.1" d="M 11.985352,6 C 11.43329,6.0080685 10.992222,6.460939 11,7.011719 v 0.5 C 10.992222,6.960939 11.43329,6.5080685 11.985352,6.5 12.548887,6.4917645 13.00794,6.949491 13,7.511719 v -0.5 C 13.00794,6.449491 12.548887,5.9917645 11.985352,6 Z m 4.999999,0 C 16.433289,6.0080685 15.992222,6.460939 16,7.011719 v 0.5 C 15.992222,6.960939 16.433289,6.5080685 16.985351,6.5 17.548887,6.4917645 18.007939,6.949491 18,7.511719 v -0.5 C 18.007939,6.449491 17.548887,5.9917645 16.985351,6 Z"/>
</svg>

<svg xmlns="http://www.w3.org/2000/svg" width="24" height="24" version="1">
 <rect style="opacity:0.2" width="20" height="20" x="2" y="2.5" rx="6" ry="6"/>
 <rect style="fill:#1e88e5" width="20" height="20" x="2" y="2" rx="6" ry="6"/>
 <path style="opacity:0.1;fill:#ffffff" d="M 8,2 C 4.676,2 2,4.676 2,8 V 8.5 C 2,5.176 4.676,2.5 8,2.5 H 16 C 19.324,2.5 22,5.176 22,8.5 V 8 C 22,4.676 19.324,2 16,2 Z"/>
 <path style="fill:#253951" d="M 6,8 V 16.988 C 5.9809,18.337 8.0191,18.337 8,16.988 V 8 Z M 16,12 V 16.988 C 15.981,18.337 18.019,18.337 18,16.988 V 12 Z M 11,14 V 16.988 C 10.981,18.337 13.019,18.337 13,16.988 V 14 Z"/>
 <path style="opacity:0.2" d="M 11.985,6 C 11.433,6.0081 10.992,6.4609 11,7.0117 V 14 H 13 V 7.0117 C 13.008,6.4495 12.549,5.9918 11.985,6 Z M 16.985,6 C 16.433,6.0081 15.992,6.4609 16,7.0117 V 12 H 18 V 7.0117 C 18.008,6.4495 17.549,5.9918 16.985,6 Z"/>
 <path style="opacity:0.2" d="M 7,6.5 C 5.8954,6.5 5,7.3954 5,8.5 5,9.6046 5.8954,10.5 7,10.5 8.1046,10.5 9,9.6046 9,8.5 9,7.3954 8.1046,6.5 7,6.5 Z M 17,10.5 C 15.895,10.5 15,11.395 15,12.5 15,13.605 15.895,14.5 17,14.5 18.105,14.5 19,13.605 19,12.5 19,11.395 18.105,10.5 17,10.5 Z M 12,12.5 C 10.895,12.5 10,13.395 10,14.5 10,15.605 10.895,16.5 12,16.5 13.105,16.5 14,15.605 14,14.5 14,13.395 13.105,12.5 12,12.5 Z"/>
 <path style="fill:#ffffff" d="M 7,6 C 5.8954,6 5,6.8954 5,8 5,9.1046 5.8954,10 7,10 8.1046,10 9,9.1046 9,8 9,6.8954 8.1046,6 7,6 Z M 17,10 C 15.895,10 15,10.895 15,12 15,13.105 15.895,14 17,14 18.105,14 19,13.105 19,12 19,10.895 18.105,10 17,10 Z M 12,12 C 10.895,12 10,12.895 10,14 10,15.105 10.895,16 12,16 13.105,16 14,15.105 14,14 14,12.895 13.105,12 12,12 Z"/>
 <path style="opacity:0.1" d="M 11.985,6 C 11.433,6.0081 10.992,6.4609 11,7.0117 V 7.5117 C 10.992,6.9609 11.433,6.5081 11.985,6.5 12.549,6.4918 13.008,6.9495 13,7.5117 V 7.0117 C 13.008,6.4495 12.549,5.9918 11.985,6 Z M 16.985,6 C 16.433,6.0081 15.992,6.4609 16,7.0117 V 7.5117 C 15.992,6.9609 16.433,6.5081 16.985,6.5 17.549,6.4918 18.008,6.9495 18,7.5117 V 7.0117 C 18.008,6.4495 17.549,5.9918 16.985,6 Z"/>
</svg>
